X:23
T:Je prens en gré
R:Chanson
C:Tielman Susato
H:1544
N:n°24
A:Anvers
B:Premier livre des chansons
O:Flandres
Z: Eric Forgeot - http://anamnese.online.fr
L:1/4
Q:1/4=100
M:C|
%%staves [1 2 3]
V:1 nm="M.S."
V:2 nm="T."
V:3 nm="Bar."
%%abc2pscompat
%%measurenb 0
K:F
V:1
%%indent 3cm
%%MIDI channel 1
%%MIDI program 60       % General MIDI french horn
%%MIDI transpose 0
%%freegchord 1
"(Chantez a deux si bon vous semble, Puis chanterez tous troix ensemble.)"
z4 | F2 FG | A/ G/ A/ B/  A c | B3 A | G2 z c | B A2 G/ F/  | E>F GA | 
GF2E | F2 z2 | F2 FG | A/ G/ A/ B/  Ac | B3 A | G2 z c | B A2 G/ F/  | E>F GA | 
GF2E | F2 zF |  FF B>A | GFG2 | z GGG | c>BAG | F2z A | ABAD | 
A2B2 | AG2 ^F | G2zc | c/  c/  c>B A/  G/  | FG G/  G/  F-|F/  E/  D/  C/  D B | B/  B/  B>A G/  F/  |
Gz/ G/ GG | c>BAG-|GF2E | F2 z c | c/  c/  c>B A/  G/  | FG G/  G/  F-|F/  E/  D/  C/  D B | B/  B/  B>A G/  F/  |
Gz/ G/ GG | c>BAG-|GF2E | HF4 |]
V:2
K:F
%%MIDI channel 2
%%MIDI program 69       % General MIDI english horn
%%MIDI transpose 0
F2FG | AABG | Ff2e | d/ c/ B/ A/  GF | z cBA | GF>GA/ B/  | ccBc-|
c/ B/ AG2 | zFFG | AABG | Ff2e | d/ c/ B/ A/  GF | z cBA | GFA>B | c2Bc-|
c/ B/ AG2 | zFFF | B>A G/ F/ G/ A/  | B/ c/  d B/ c =B/  | c2zc | ccfe | dd c/ B/ A/ G/  | FGAB |
cd2B | c/ B/ B/ A/4G/4 A2 | Gcc/  c/  c | z/  f/  f/  f/  f>e | d/ c/ B/  A/  G/ A/ B/ c/  | dB B/  B/  B-|B/  A/  G/  F/  G2 |
z/  G/  G/  G/  cz/ c/  | c/  c/  f/  F/  F/  F/  c/  B/  | A B G2 | F4 | 
V:3
%%MIDI channel 3
%%MIDI program 70       % General MIDI bassoon
%%MIDI transpose -12
K:F bass
%%freegchord 1
"(Veulx tu chanter par bon advis, Attens que tu en soys requis.)"
z4 | f2 B _e | d3 c | g>f _ef | _ec d/  =e/ f | gazc'-|c'/ b/ agf |
efc2 | f2 z2 | f2 B _e | d3 c | g>f _ef | _ec d/ =e/ f | gazc'-|c'/ b/ agf |
efc2 | f2 BB | B b>ag/ f/  | _ede/  c/  g | z/  c/  c/  c/  c'>b | a>gfc | dBf>g | agfg | 
fdg2 | fgd2 | zcf>f | f2 zd | d/  d/  _e>e d/  c/  | B2 z2 | _e e/  e/  e>d |
W:Je prens en gré la dure mort Pour vous madame, Pour vous madame par amour,
W:Navré m'avez mais à grant tort Dont de brief, Dont de brief fineray mes jours,
W:La chose me vient à rebours, La chose me vient à rebours, Souffrir si tost la mort amere,
W:O dure mort, O dure mort que faictes vous, O dure mort que faictes vous ?
%%MIDI transpose 0

%%newpage


